apps/scalable/help/help.svg

<svg xmlns="http://www.w3.org/2000/svg" style="isolation:isolate" width="256" height="256"><defs><filter id="a" width="270.648" height="254.338" x="-7.32" y="2.95" filterUnits="userSpaceOnUse"><feGaussianBlur xmlns="http://www.w3.org/2000/svg" in="SourceGraphic" stdDeviation="4.294"/><feOffset xmlns="http://www.w3.org/2000/svg" dy="4" result="pf_100_offsetBlur"/><feFlood xmlns="http://www.w3.org/2000/svg" flood-opacity=".4"/><feComposite xmlns="http://www.w3.org/2000/svg" in2="pf_100_offsetBlur" operator="in" result="pf_100_dropShadow"/><feBlend xmlns="http://www.w3.org/2000/svg" in="SourceGraphic" in2="pf_100_dropShadow"/></filter></defs><path fill="#9F333F" d="M165.685 11.947c74.055 0 84.639 10.557 84.639 84.544v59.251c0 73.986-10.584 84.543-84.639 84.543h-75.37c-74.055 0-84.639-10.557-84.639-84.543V96.491c0-73.987 10.584-84.544 84.639-84.544h75.37z" filter="url(#a)"/><path fill="#FFF" fill-rule="evenodd" d="M142.764 163.381h-29.99v-8.305q0-11.765 3.807-20.762 3.806-8.997 9.343-14.073 5.536-5.075 10.958-9.458 5.421-4.383 9.227-9.574 3.807-5.19 3.807-11.65 0-8.074-5.306-13.034-5.306-4.96-14.764-4.96-11.535 0-17.648 7.037-6.114 7.036-6.114 20.185h-29.99q0-26.53 14.765-41.294 14.764-14.764 38.987-14.764 23.761 0 36.91 13.149 13.15 13.15 13.15 33.681 0 8.997-2.769 16.033-2.768 7.037-6.92 11.42-4.153 4.383-8.882 8.766t-8.882 7.959q-4.152 3.576-6.92 9.112-2.769 5.537-2.769 12.458v8.074zm-.807 40.948q-5.652 5.421-13.957 5.421t-13.842-5.421q-5.536-5.422-5.536-13.496 0-8.074 5.536-13.611 5.537-5.536 13.842-5.536t13.957 5.536q5.652 5.537 5.652 13.611 0 8.074-5.652 13.496z"/><g opacity=".4"><linearGradient id="b" x1=".517" x2=".517" y2="1"><stop offset="0%" stop-color="#fff"/><stop offset="12.5%" stop-opacity=".098" stop-color="#fff"/><stop offset="92.5%" stop-opacity=".098"/><stop offset="100%" stop-opacity=".498"/></linearGradient><path fill="none" stroke="url(#b)" stroke-linecap="round" stroke-linejoin="round" stroke-width="4.077" d="M165.685 11.947c74.055 0 84.639 10.557 84.639 84.544v59.251c0 73.986-10.584 84.543-84.639 84.543h-75.37c-74.055 0-84.639-10.557-84.639-84.543V96.491c0-73.987 10.584-84.544 84.639-84.544h75.37z" vector-effect="non-scaling-stroke"/></g></svg>

<svg xmlns="http://www.w3.org/2000/svg" style="isolation:isolate" width="256" height="256" viewBox="0 0 256 256">
 <defs>
  <filter id="lGPQWcZEwmmq8FNAGRwdbv30uS4YtHpE" width="270.648" height="254.338" x="-7.32" y="2.95" filterUnits="userSpaceOnUse">
   <feGaussianBlur xmlns="http://www.w3.org/2000/svg" in="SourceGraphic" stdDeviation="4.294"/>
   <feOffset xmlns="http://www.w3.org/2000/svg" dx="0" dy="4" result="pf_100_offsetBlur"/>
   <feFlood xmlns="http://www.w3.org/2000/svg" flood-opacity=".4"/>
   <feComposite xmlns="http://www.w3.org/2000/svg" in2="pf_100_offsetBlur" operator="in" result="pf_100_dropShadow"/>
   <feBlend xmlns="http://www.w3.org/2000/svg" in="SourceGraphic" in2="pf_100_dropShadow" mode="normal"/>
  </filter>
 </defs>
 <g filter="url(#lGPQWcZEwmmq8FNAGRwdbv30uS4YtHpE)">
  <path fill="#9F333F" d="M 165.685 11.947 C 239.74 11.947 250.324 22.504 250.324 96.491 L 250.324 155.742 C 250.324 229.728 239.74 240.285 165.685 240.285 L 90.315 240.285 C 16.26 240.285 5.676 229.728 5.676 155.742 L 5.676 96.491 C 5.676 22.504 16.26 11.947 90.315 11.947 L 165.685 11.947 Z"/>
 </g>
 <path fill="#FFFFFF" fill-rule="evenodd" d="M 142.764 163.381 L 112.774 163.381 L 112.774 155.076 L 112.774 155.076 Q 112.774 143.311 116.581 134.314 L 116.581 134.314 L 116.581 134.314 Q 120.387 125.317 125.924 120.241 L 125.924 120.241 L 125.924 120.241 Q 131.46 115.166 136.882 110.783 L 136.882 110.783 L 136.882 110.783 Q 142.303 106.4 146.109 101.209 L 146.109 101.209 L 146.109 101.209 Q 149.916 96.019 149.916 89.559 L 149.916 89.559 L 149.916 89.559 Q 149.916 81.485 144.61 76.525 L 144.61 76.525 L 144.61 76.525 Q 139.304 71.565 129.846 71.565 L 129.846 71.565 L 129.846 71.565 Q 118.311 71.565 112.198 78.602 L 112.198 78.602 L 112.198 78.602 Q 106.084 85.638 106.084 98.787 L 106.084 98.787 L 76.094 98.787 L 76.094 98.787 Q 76.094 72.257 90.859 57.493 L 90.859 57.493 L 90.859 57.493 Q 105.623 42.729 129.846 42.729 L 129.846 42.729 L 129.846 42.729 Q 153.607 42.729 166.756 55.878 L 166.756 55.878 L 166.756 55.878 Q 179.906 69.028 179.906 89.559 L 179.906 89.559 L 179.906 89.559 Q 179.906 98.556 177.137 105.592 L 177.137 105.592 L 177.137 105.592 Q 174.369 112.629 170.217 117.012 L 170.217 117.012 L 170.217 117.012 Q 166.064 121.395 161.335 125.778 L 161.335 125.778 L 161.335 125.778 Q 156.606 130.161 152.453 133.737 L 152.453 133.737 L 152.453 133.737 Q 148.301 137.313 145.533 142.849 L 145.533 142.849 L 145.533 142.849 Q 142.764 148.386 142.764 155.307 L 142.764 155.307 L 142.764 163.381 Z M 141.957 204.329 L 141.957 204.329 L 141.957 204.329 Q 136.305 209.75 128 209.75 L 128 209.75 L 128 209.75 Q 119.695 209.75 114.158 204.329 L 114.158 204.329 L 114.158 204.329 Q 108.622 198.907 108.622 190.833 L 108.622 190.833 L 108.622 190.833 Q 108.622 182.759 114.158 177.222 L 114.158 177.222 L 114.158 177.222 Q 119.695 171.686 128 171.686 L 128 171.686 L 128 171.686 Q 136.305 171.686 141.957 177.222 L 141.957 177.222 L 141.957 177.222 Q 147.609 182.759 147.609 190.833 L 147.609 190.833 L 147.609 190.833 Q 147.609 198.907 141.957 204.329 Z"/>
 <g opacity=".4">
  <linearGradient id="_lgradient_226" x1=".517" x2=".517" y1="0" y2="1">
   <stop offset="0%" style="stop-color:rgb(255,255,255)"/>
   <stop offset="12.5%" stop-opacity=".098" style="stop-color:rgb(255,255,255)"/>
   <stop offset="92.5%" stop-opacity=".098" style="stop-color:rgb(0,0,0)"/>
   <stop offset="100%" stop-opacity=".498" style="stop-color:rgb(0,0,0)"/>
  </linearGradient>
  <path fill="none" stroke="url(#_lgradient_226)" stroke-linecap="round" stroke-linejoin="round" stroke-width="4.077" d="M 165.685 11.947 C 239.74 11.947 250.324 22.504 250.324 96.491 L 250.324 155.742 C 250.324 229.728 239.74 240.285 165.685 240.285 L 90.315 240.285 C 16.26 240.285 5.676 229.728 5.676 155.742 L 5.676 96.491 C 5.676 22.504 16.26 11.947 90.315 11.947 L 165.685 11.947 Z" vector-effect="non-scaling-stroke"/>
 </g>
</svg>
